packages/ui-icons/svg/Solid/underline.svg

<svg viewBox="0 0 1920 1920" version="1.1" xmlns="http://www.w3.org/2000/svg">
    <path d="M1714.57143,1645.71429 L1714.57143,1920 L206,1920 L206,1645.71429 L1714.57143,1645.71429 Z M480.285714,0 L480.285714,822.857143 C480.285714,1050.10286 664.468571,1234.28571 891.714286,1234.28571 L891.714286,1234.28571 L1028.85714,1234.28571 C1256.10286,1234.28571 1440.28571,1050.10286 1440.28571,822.857143 L1440.28571,822.857143 L1440.28571,0 L1714.57143,0 L1714.57143,822.857143 C1714.57143,1201.64571 1407.50857,1508.57143 1028.85714,1508.57143 L1028.85714,1508.57143 L891.714286,1508.57143 C513.062857,1508.57143 206,1201.64571 206,822.857143 L206,822.857143 L206,0 L480.285714,0 Z" stroke="none" stroke-width="1" fill-rule="evenodd"/>
</svg>

<svg viewBox="0 0 1920 1920" version="1.1" xmlns="http://www.w3.org/2000/svg">
    <path d="M1440.286 0h274.285v822.857c0 378.789-307.062 685.714-685.714 685.714H891.714C513.063 1508.571 206 1201.646 206 822.857V0h274.286v822.857c0 227.246 184.183 411.429 411.428 411.429h137.143c227.246 0 411.429-184.183 411.429-411.429V0zM206 1920v-274.286h1508.571V1920H206z" stroke="none" stroke-width="1" fill-rule="evenodd"/>
</svg>
